X: 40756
T: Touching Cloth
R: reel
M: 4/4
K: Dmajor
|:ADFA (3BBB dB|ABdf (3efe dB|ADFA Bdef|gefd edBd|
ADFA BAFB|ABdf ed (3efg|afdf (3efe dB|Adfd efdB:|
|:Adfd edfd|Adfd edBd|Adfd edef|(3gag fg edBd|
Adfd edfd|Adfd ed (3efg|afdf efdB|Adfd efdB:|

